X:1
T:Psalm 1 (1-3)
T:Joseph Knapicius b 1957
T:Psalm 1 (1-3) February 2019 Sun the 17th: Psalter II, Ordinary Time Week 6. 
T:2014
T:2014
T:2014
T:2014
T:2014
C:Joseph Knapicius
Z:2014
%%score [ ( 1 2 ) ( 3 4 ) 5 ]
L:1/8
Q:1/4=80
M:2/2
K:Dmin
V:1 treble nm="Soprano\n1 &amp; 2" snm="S\n1\n&amp;\n2"
V:2 treble 
V:3 treble nm="Alto\n1 &amp; 2" snm="A\n1\n&amp;\n2"
V:4 treble 
V:5 treble-8 nm="Tenor\n&amp; Bass" snm="T\n&amp;\nB"
V:1
 D8 | x4"^Instrument change" (A4 | G8) | x4"^Instrument change" d4- | d8 | %5
w: Ah,|Ah,||Ah,||
 x4"^Instrument change" (F4 | G8) | x4"^Instrument change" (E4 | D8) | x4"^Instrument change" (A4 | %10
w: Ah,||Ah,||Ah,|
 G8) | x4"^Instrument change" d4- | d8 | x4"^Instrument change" (A4 | G8) | %15
w: |Ah,||Ah,||
 x4"^Instrument change" (E4 | D8) | x4"^Instrument change" (A4 | G8) | x4"^Instrument change" d4- | %20
w: Ah,||Ah,||Ah,|
 d8 | x4"^Instrument change" (F4 | G8) | x4"^Instrument change" (E4 | D8) | %25
w: |Ah,||Ah,||
 x4"^Instrument change" (A4 | G8) | x4"^Instrument change" d4- | d8 | x4"^Instrument change" (F4 | %30
w: Ah,||Ah,||Ah,|
 G8) | x4"^Instrument change" (E4 | D8) | x4"^Instrument change" (A4 | G8) | %35
w: |Ah,||Ah,||
 x4"^Instrument change" d4- | d8 | x4"^Instrument change" (F4 | G8) | x4"^Instrument change" (E4 | %40
w: Ah,||Ah,||Ah,|
 D8) | x4"^Instrument change" (A4 | G8) | x8 |] %44
w: |Ah,|||
V:2
 x4"^Instrument change" (c4 | B8) | x4"^Instrument change" A4- | A8 | x4"^Instrument change" (c4 | %5
w: |||||
w: Ah,||Ah,||Ah,|
 B8) | x4"^Instrument change" (F4 | E8) | x4"^Instrument change" (c4 | B8) | %10
w: |||||
w: |Ah,||Ah,||
 x4"^Instrument change" A4- | A8 | x4"^Instrument change" (c4 | B8) | x4"^Instrument change" (F4 | %15
w: |||||
w: Ah,||Ah,||Ah,|
 E8) | x4"^Instrument change" (c4 | B8) | x4"^Instrument change" A4- | A8 | %20
w: |||||
w: |Ah,||Ah,||
 x4"^Instrument change" (c4 | B8) | x4"^Instrument change" (F4 | E8) | x4"^Instrument change" (c4 | %25
w: |||||
w: Ah,||Ah,||Ah,|
 B8) | x4"^Instrument change" A4- | A8 | x4"^Instrument change" (c4 | B8) | %30
w: |||||
w: |Ah,||Ah,||
 x4"^Instrument change" (F4 | E8) | x4"^Instrument change" (c4 | B8) | x4"^Instrument change" A4- | %35
w: |||||
w: Ah,||Ah,||Ah,|
 A8 | x4"^Instrument change" (c4 | B8) | x4"^Instrument change" (F4 | E8) | %40
w: |||||
w: |Ah,||Ah,||
 x4"^Instrument change" (c4 | B8) | x4"^Instrument change" A4- | !fermata!A8 |] %44
w: ||||
w: Ah,||Ah,||
V:3
 z4 D4- | D8 | x4"^Instrument change" (G4 | F8) | x4"^Instrument change" D4- | D8 | %6
w: Ah,||Ah,||Ah,||
 x4"^Instrument change" C4- | C8 | x4"^Instrument change" D4- | D8 | x4"^Instrument change" (G4 | %11
w: Ah,||Ah,||Ah,|
 F8) | x4"^Instrument change" D4- | D8 | x4"^Instrument change" C4- | C8 | %16
w: |Ah,||Ah,||
 x4"^Instrument change" D4- | D8 | x4"^Instrument change" (G4 | F8) | x4"^Instrument change" D4- | %21
w: Ah,||Ah,||Ah,|
 D8 | x4"^Instrument change" C4- | C8 | x4"^Instrument change" D4- | D8 | %26
w: |Ah,||Ah,||
 x4"^Instrument change" (G4 | F8) | x4"^Instrument change" D4- | D8 | x4"^Instrument change" C4- | %31
w: Ah,||Ah,||Ah,|
 C8 | x4"^Instrument change" D4- | D8 | x4"^Instrument change" (G4 | F8) | %36
w: |Ah,||Ah,||
 x4"^Instrument change" D4- | D8 | x4"^Instrument change" C4- | C8 | x4"^Instrument change" D4- | %41
w: Ah,||Ah,||Ah,|
 D8 | x4"^Instrument change" (G4 | !fermata!F8) |] %44
w: |Ah,||
V:4
 x8 | x4"^Instrument change" D4- | D8 | x4"^Instrument change" D4- | D8 | %5
w: |||||
w: |Ah,||Ah,||
 x4"^Instrument change" (D4 | C8) | x4"^Instrument change" (C4 | B,8) | %9
w: ||||
w: Ah,||Ah,||
 x4"^Instrument change" D4- | D8 | x4"^Instrument change" D4- | D8 | x4"^Instrument change" (D4 | %14
w: |||||
w: Ah,||Ah,||Ah,|
 C8) | x4"^Instrument change" (C4 | B,8) | x4"^Instrument change" D4- | D8 | %19
w: |||||
w: |Ah,||Ah,||
 x4"^Instrument change" D4- | D8 | x4"^Instrument change" (D4 | C8) | x4"^Instrument change" (C4 | %24
w: |||||
w: Ah,||Ah,||Ah,|
 B,8) | x4"^Instrument change" D4- | D8 | x4"^Instrument change" D4- | D8 | %29
w: |||||
w: |Ah,||Ah,||
 x4"^Instrument change" (D4 | C8) | x4"^Instrument change" (C4 | B,8) | %33
w: ||||
w: Ah,||Ah,||
 x4"^Instrument change" D4- | D8 | x4"^Instrument change" D4- | D8 | x4"^Instrument change" (D4 | %38
w: |||||
w: Ah,||Ah,||Ah,|
 C8) | x4"^Instrument change" (C4 | B,8) | x4"^Instrument change" D4- | D8 | x8 |] %44
w: ||||||
w: |Ah,||Ah,|||
V:5
 z8 | z8 | z8 | z8 | A2 D2 E2 D2 | D4 z2 F2 | E2 D2 C2 BA | G4 E4 | F2 E2 F2 D2 | z2 (FG) A4 | %10
w: ||||1)Bless- ed is the|one who|does not walk in the|coun- sel|of the wick- ed,|Nor * stand|
 B3 A G2 A2 | F4 D3 z | z2 (FG) A2 G2 | F2 E2 D2 F2 | E4 C4 | z2 (EF) G2 E2 | F2 B4 A2 | %17
w: in the way of|sin- ners,|nor * sit in|com- pa- ny with|scoff- ers.|2)Rath- * er, the|law of the|
 (G2 F3) z GA | B3 z c2 B2 | A4 z2 z2 | z2 A4 G2 | F4 (BA)(GF) | E2 A2 G4 | E2 A2 G3 z | z2 F2 G4 | %25
w: Lord * is their|joy; is their|joy;|and on|God’s law * they *|med- i- tate|day and night.|3)They are|
 (BA) G2 A3 z | (BA) G2 A4 | c2 B2 (AG) A2- | A2 z2 z2 F2 | G2 A2 B2 D2 | (E2 F2) G3 z | z2 G4 E2 | %32
w: like * a tree|plant- * ed near|streams of wa- * ter,|* that|yields its fruit in|sea- * son;|Its leaves|
 F2 E2 F2 D2 | z2 z2 FG A2 | B4 (A2 G2) | A4 F3 z | z8 | z8 | G2 C2 D2 C2 | C4 z4 | F2 B,2 C2 B,2 | %41
w: nev- er with- er;|What- ev- er|they do *|pros- pers.|||Bless- ed is the|one|Bless- ed is the|
 B,4 z4 | (BA) G2 F2 D2 | !fermata!D8 |] %44
w: one|Bless- * ed is the|one|

